material/.icons/material/clipboard-file-outline.svg

<svg xmlns="http://www.w3.org/2000/svg" viewBox="0 0 24 24"><path d="M15 23a2 2 0 01-2-2v-9c0-1.1.9-2 2-2h4l4 4v7c0 1.11-.89 2-2 2h-6m0-2h6v-6.17L18.17 12H15v9m4-18c1.1 0 2 .9 2 2v4.17L19.83 8H19V5h-2v2H7V5H5v14h6v2H5c-1.1 0-2-.9-2-2V5c0-1.1.9-2 2-2h4.18C9.6 1.84 10.7 1 12 1c1.3 0 2.4.84 2.82 2H19m-7 0c-.55 0-1 .45-1 1s.45 1 1 1 1-.45 1-1-.45-1-1-1z"/></svg>

<?xml version="1.0" encoding="UTF-8"?><!DOCTYPE svg PUBLIC "-//W3C//DTD SVG 1.1//EN" "http://www.w3.org/Graphics/SVG/1.1/DTD/svg11.dtd"><svg xmlns="http://www.w3.org/2000/svg" xmlns:xlink="http://www.w3.org/1999/xlink" version="1.1" id="mdi-clipboard-file-outline" width="24" height="24" viewBox="0 0 24 24"><path d="M15 23C13.9 23 13 22.11 13 21V12C13 10.9 13.9 10 15 10H19L23 14V21C23 22.11 22.11 23 21 23H15M15 21H21V14.83L18.17 12H15V21M19 3C20.1 3 21 3.9 21 5V9.17L19.83 8H19V5H17V7H7V5H5V19H11V21H5C3.9 21 3 20.1 3 19V5C3 3.9 3.9 3 5 3H9.18C9.6 1.84 10.7 1 12 1C13.3 1 14.4 1.84 14.82 3H19M12 3C11.45 3 11 3.45 11 4C11 4.55 11.45 5 12 5C12.55 5 13 4.55 13 4C13 3.45 12.55 3 12 3Z" /></svg>
